static/img/menus/ico-floor-locked-door.svg

<svg width="20" height="20" viewBox="0 0 20 20" fill="none" xmlns="http://www.w3.org/2000/svg">
<path d="M9.99999 18.506L9.89765 18.4855C9.67947 18.4419 9.49616 18.3471 9.3528 18.2037C9.21111 18.062 9.1025 17.8989 9.02995 17.7188C8.89491 17.3915 8.68861 17.0761 8.41655 16.7812C8.21987 16.6058 8.02247 16.4578 7.8293 16.3408L6.27621 15.5125L6.26613 15.5071L6.2563 15.5013C5.71084 15.179 5.19621 14.7775 4.72672 14.308L4.7187 14.3L4.71104 14.2917C4.45163 14.0087 4.20043 13.7216 3.96439 13.4383L3.95531 13.4274L3.94683 13.4161C3.0012 12.1469 2.52173 10.6612 2.52173 8.99999C2.52173 6.94094 3.26359 5.15506 4.72672 3.69193C5.19265 3.226 5.70315 2.83843 6.24453 2.53958C6.42091 2.41562 6.61105 2.30244 6.81015 2.20289L6.81743 2.19925L6.82483 2.19584C7.79399 1.74853 8.86227 1.52173 9.99999 1.52173C11.1377 1.52173 12.206 1.74853 13.1751 2.19584L13.1825 2.19925L13.1898 2.20289C13.3889 2.30244 13.5791 2.41562 13.7554 2.53958C14.2968 2.83843 14.8073 3.226 15.2733 3.69193C16.7364 5.15506 17.4782 6.94094 17.4782 8.99999C17.4782 10.6612 16.9988 12.1469 16.0531 13.4161C15.8297 13.714 15.5676 14.0137 15.2733 14.308C14.8038 14.7775 14.2891 15.179 13.7437 15.5013L13.736 15.5059L13.7281 15.5102L12.1977 16.345C11.9855 16.4607 11.7789 16.6074 11.5833 16.7814C11.3113 17.0762 11.105 17.3915 10.97 17.7188C10.8975 17.8989 10.7889 18.062 10.6472 18.2037C10.5038 18.3471 10.3205 18.4419 10.1023 18.4855L9.99999 18.506Z" fill="#FF0000"/>
<path d="M10 2.04348C8.93334 2.04348 7.94783 2.25217 7.04348 2.66957C6.85797 2.76232 6.68406 2.86666 6.52174 2.98261C6.0116 3.26087 5.53623 3.62029 5.09565 4.06087C3.72753 5.42899 3.04348 7.07536 3.04348 9C3.04348 10.5536 3.48406 11.9217 4.36522 13.1043C4.5971 13.3826 4.84058 13.6609 5.09565 13.9391C5.53623 14.3797 6.0116 14.7507 6.52174 15.0522L8.08696 15.887C8.31884 16.0261 8.55073 16.2 8.78261 16.4087C9.10725 16.7565 9.35073 17.1275 9.51304 17.5217C9.55942 17.6377 9.62899 17.742 9.72174 17.8348C9.79131 17.9043 9.88406 17.9507 10 17.9739C10.1159 17.9507 10.2087 17.9043 10.2783 17.8348C10.371 17.742 10.4406 17.6377 10.487 17.5217C10.6493 17.1275 10.8928 16.7565 11.2174 16.4087C11.4493 16.2 11.6928 16.0261 11.9478 15.887L13.4783 15.0522C13.9884 14.7507 14.4638 14.3797 14.9043 13.9391C15.1826 13.6609 15.4261 13.3826 15.6348 13.1043C16.5159 11.9217 16.9565 10.5536 16.9565 9C16.9565 7.07536 16.2725 5.42899 14.9043 4.06087C14.4638 3.62029 13.9884 3.26087 13.4783 2.98261C13.3159 2.86666 13.142 2.76232 12.9565 2.66957C12.0522 2.25217 11.0667 2.04348 10 2.04348ZM10 1C11.2138 1 12.3556 1.24296 13.3938 1.72213L13.4232 1.73624C13.6366 1.84298 13.8412 1.96399 14.0321 2.09642C14.6072 2.41703 15.1486 2.82947 15.6422 3.32302C17.2067 4.88754 18 6.79755 18 9C18 10.776 17.4857 12.3666 16.4715 13.7278C16.2323 14.0468 15.954 14.3652 15.6422 14.677C15.1417 15.1774 14.5923 15.6059 14.0091 15.9505L13.9779 15.9682L12.4475 16.803C12.277 16.896 12.1096 17.0141 11.9493 17.1542C11.7287 17.3972 11.562 17.653 11.4534 17.9153C11.3544 18.1603 11.2074 18.3814 11.0161 18.5726C10.8017 18.787 10.5211 18.9338 10.2047 18.9971L10 19.0381L9.79532 18.9971C9.47888 18.9338 9.19829 18.787 8.98389 18.5726C8.79264 18.3814 8.64556 18.1603 8.54664 17.9153C8.43795 17.6528 8.27102 17.3967 8.0501 17.1536C7.88778 17.0105 7.72679 16.8898 7.57069 16.7942L5.99089 15.9505C5.40771 15.6059 4.85827 15.1774 4.3578 14.677L4.32645 14.6442C4.06152 14.3552 3.80486 14.0619 3.56359 13.7724L3.52847 13.7278C2.51425 12.3666 2 10.776 2 9C2 6.79755 2.79328 4.88754 4.3578 3.32302C4.85135 2.82947 5.39279 2.41703 5.96789 2.09642C6.15879 1.96399 6.36336 1.84298 6.57684 1.73624L6.6062 1.72213C7.6444 1.24296 8.78624 1 10 1Z" fill="black"/>
<path d="M6.86985 12.4781C6.82263 12.4847 6.77443 12.4802 6.72923 12.4651C6.68402 12.4499 6.64337 12.4245 6.60966 12.3908C6.57595 12.3571 6.55008 12.316 6.53493 12.2708C6.51978 12.2256 6.51543 12.1775 6.52203 12.1303V9.35461C6.51558 9.30742 6.52041 9.25938 6.53561 9.21424C6.55081 9.1691 6.57598 9.1281 6.60966 9.09442C6.64334 9.06074 6.68409 9.03532 6.72923 9.02012C6.77437 9.00492 6.82266 9.00034 6.86985 9.00679H13.1307C13.1779 9.00034 13.2262 9.00492 13.2713 9.02012C13.3165 9.03532 13.3572 9.06074 13.3909 9.09442C13.4246 9.1281 13.4498 9.1691 13.465 9.21424C13.4802 9.25938 13.485 9.30742 13.4785 9.35461V12.1303C13.4851 12.1775 13.4808 12.2256 13.4656 12.2708C13.4505 12.316 13.4246 12.3571 13.3909 12.3908C13.3572 12.4245 13.3166 12.4499 13.2713 12.4651C13.2261 12.4802 13.1779 12.4847 13.1307 12.4781H6.86985ZM12.0872 8.652V7.60852C12.0908 7.32965 12.0373 7.05303 11.9296 6.79576C11.8219 6.5385 11.662 6.30605 11.4609 6.11285C11.271 5.91926 11.0437 5.76683 10.7924 5.66499C10.5411 5.56315 10.2714 5.5141 10.0003 5.52088C9.72427 5.5153 9.4499 5.56479 9.19322 5.66643C8.93654 5.76808 8.70241 5.91981 8.50504 6.11285C8.31214 6.31046 8.16102 6.54443 8.05939 6.8012C7.95776 7.05797 7.90793 7.33242 7.91333 7.60852V8.652H7.21768V7.60852C7.21345 7.24161 7.28171 6.87748 7.41876 6.5371C7.55582 6.19672 7.75928 5.88685 8.01659 5.62525C8.27833 5.36789 8.5878 5.16476 8.92828 5.02759C9.26876 4.89042 9.63324 4.82187 10.0003 4.82591C10.3623 4.81909 10.7217 4.88647 11.0567 5.02394C11.3917 5.16141 11.6951 5.36609 11.948 5.62525C12.2154 5.88115 12.4274 6.18917 12.5709 6.53031C12.7145 6.87145 12.7868 7.23841 12.7829 7.60852V8.652H12.0872Z" fill="white"/>
<path d="M13.1304 12.4775C13.3614 12.4775 13.4776 12.3617 13.4776 12.1269V9.35095C13.4776 9.11768 13.3614 9.00024 13.1304 9.00024H6.86888C6.63722 9.00024 6.52173 9.11768 6.52173 9.35095V12.1269C6.52173 12.3617 6.63722 12.4775 6.86888 12.4775H13.1304ZM12.7826 8.65284V7.60902C12.7826 6.84246 12.5041 6.18027 11.9477 5.62575C11.4178 5.09407 10.7683 4.82819 9.99999 4.82658C9.23369 4.82819 8.57336 5.09569 8.01698 5.62575C7.48709 6.18196 7.21942 6.84246 7.21807 7.60902V8.65284H7.91236V7.60902C7.911 7.03005 8.10665 6.53098 8.50475 6.11344C8.92051 5.71865 9.41304 5.52138 9.98641 5.52138C9.99184 5.5213 9.99932 5.52138 10.0068 5.52138C10.5802 5.52138 11.0652 5.71873 11.4599 6.11344C11.8791 6.53259 12.0863 7.03005 12.0863 7.60902V8.65284H12.7826ZM13.1304 13.1758H6.86888C6.25339 13.1758 5.82336 12.7445 5.82336 12.1269V9.35095C5.82336 8.85834 6.09646 8.48427 6.5197 8.35299V7.60902C6.52173 6.66192 6.85529 5.83303 7.51154 5.14409L7.53532 5.12014C8.22418 4.46398 9.05298 4.13025 9.99864 4.1283C10.9586 4.13025 11.7799 4.46822 12.4422 5.1328C13.1311 5.81911 13.481 6.65275 13.481 7.60902V8.35342C13.9028 8.48512 14.1759 8.85893 14.1759 9.35095V12.1269C14.1759 12.7445 13.7459 13.1758 13.1304 13.1758ZM8.61073 8.30195H11.3879V7.60902C11.3879 7.2133 11.2541 6.89503 10.966 6.60724C10.7018 6.3428 10.3974 6.21967 10.0068 6.21967H9.98573C9.59714 6.21967 9.2826 6.34314 8.99796 6.608C8.73301 6.89171 8.61005 7.20973 8.61073 7.60741V8.30195Z" fill="black" fill-opacity="0.25"/>
</svg>

<svg xmlns="http://www.w3.org/2000/svg" width="20" height="20" fill="none" viewBox="0 0 20 20"><path fill="red" d="m10 18.506-.102-.02a1.04 1.04 0 0 1-.545-.282 1.45 1.45 0 0 1-.323-.485 3.2 3.2 0 0 0-.613-.938 4 4 0 0 0-.588-.44l-1.553-.829-.01-.005-.01-.006a7.7 7.7 0 0 1-1.53-1.193L4.72 14.3l-.008-.008q-.39-.426-.747-.854l-.009-.01-.008-.012C3 12.146 2.522 10.661 2.522 9c0-2.06.742-3.845 2.205-5.308A6.8 6.8 0 0 1 6.245 2.54q.265-.187.565-.337l.007-.004.008-.003A7.5 7.5 0 0 1 10 1.522c1.138 0 2.206.227 3.175.674l.007.003.008.004c.199.1.39.213.565.337a6.8 6.8 0 0 1 1.518 1.152C16.736 5.155 17.478 6.94 17.478 9c0 1.661-.48 3.147-1.425 4.416a8.4 8.4 0 0 1-.78.892c-.47.47-.984.871-1.53 1.193l-.007.005-.008.004-1.53.835a3.3 3.3 0 0 0-.615.436 3.2 3.2 0 0 0-.613.938q-.109.271-.323.485a1.04 1.04 0 0 1-.545.281z"/><path fill="#000" d="M10 2.043q-1.6 0-2.957.627-.278.139-.521.313-.765.417-1.426 1.078Q3.044 6.113 3.043 9q0 2.331 1.322 4.104.349.418.73.835.662.66 1.427 1.113l1.565.835q.348.21.696.522.486.522.73 1.113.07.174.209.313a.53.53 0 0 0 .278.139.53.53 0 0 0 .278-.14.9.9 0 0 0 .209-.312q.244-.591.73-1.113.349-.314.73-.522l1.531-.835q.765-.452 1.426-1.113.418-.417.73-.835Q16.957 11.331 16.957 9q0-2.887-2.052-4.94-.66-.66-1.426-1.077a4 4 0 0 0-.521-.313Q11.6 2.043 10 2.043M10 1c1.214 0 2.356.243 3.394.722l.03.014q.32.161.608.36c.575.321 1.117.733 1.61 1.227C17.207 4.888 18 6.798 18 9c0 1.776-.514 3.367-1.529 4.728a9 9 0 0 1-.829.949c-.5.5-1.05.929-1.633 1.274l-.031.017-1.53.835q-.257.14-.499.351-.331.366-.496.761a2 2 0 0 1-.437.658 1.58 1.58 0 0 1-.811.424l-.205.041-.205-.04a1.58 1.58 0 0 1-.811-.425 2 2 0 0 1-.437-.658 2.7 2.7 0 0 0-.497-.761 3.5 3.5 0 0 0-.48-.36l-1.58-.844a8.3 8.3 0 0 1-1.632-1.273l-.032-.033a25 25 0 0 1-.762-.872l-.036-.044C2.514 12.367 2 10.776 2 9c0-2.202.793-4.112 2.358-5.677a7.3 7.3 0 0 1 1.61-1.227 5 5 0 0 1 .609-.36l.03-.014A8 8 0 0 1 10 1"/><path fill="#fff" d="M6.87 12.478a.31.31 0 0 1-.348-.348V9.355a.31.31 0 0 1 .348-.348h6.26a.31.31 0 0 1 .348.348v2.775a.307.307 0 0 1-.347.348zm5.217-3.826V7.609a2.04 2.04 0 0 0-.626-1.496A1.98 1.98 0 0 0 10 5.52a2.08 2.08 0 0 0-1.496.592 2.08 2.08 0 0 0-.592 1.496v1.043h-.695V7.609a2.78 2.78 0 0 1 .799-1.984 2.78 2.78 0 0 1 1.983-.8 2.65 2.65 0 0 1 1.948.8 2.7 2.7 0 0 1 .835 1.984v1.043z"/><path fill="#000" fill-opacity=".25" d="M13.13 12.478q.347 0 .348-.351V9.35q0-.35-.348-.35H6.87q-.348 0-.347.35v2.776q0 .351.347.35zm-.347-3.825V7.609q0-1.151-.835-1.983-.795-.798-1.948-.8a2.79 2.79 0 0 0-1.983.8 2.79 2.79 0 0 0-.799 1.983v1.044h.694V7.609a2.08 2.08 0 0 1 .593-1.496 2.08 2.08 0 0 1 1.481-.592h.02q.862 0 1.454.592.628.629.626 1.496v1.044zm.347 4.523H6.87c-.616 0-1.046-.431-1.046-1.05V9.352c0-.493.273-.867.697-.998v-.744a3.48 3.48 0 0 1 .992-2.465l.023-.024A3.48 3.48 0 0 1 10 4.128c.96.002 1.78.34 2.443 1.005.69.686 1.039 1.52 1.039 2.476v.744c.422.132.695.506.695.998v2.776c0 .617-.43 1.049-1.046 1.049M8.61 8.302h2.778v-.693c0-.396-.134-.714-.422-1.002a1.27 1.27 0 0 0-.96-.387h-.02c-.389 0-.703.123-.988.388a1.38 1.38 0 0 0-.387 1z"/></svg>
